X: 23
T: Toss The Feathers
Z: UPipes & harp
S: https://thesession.org/tunes/138#setting49185
R: reel
M: 4/4
L: 1/8
K: Dmix
D2 (3FED AD (3FED|ABBA GEcE|D2 (3FED ADFA|(3ddd ed cAGE|
D2 (3FED AD (3FED|A2 BA GEDA|cABG A2 B2|d2 ed cAGE||
Ad (3ddd Ad (3ddd|Ad (3ddd ed (3Bcd|eaag ~a3 g|~a3 g ed (3Bcd||
efge a2 ge|f2 ed cA A2|cABG A3 B|d2 ed cAdB||

